src/symbolic/status/network-wired-no-route-symbolic.svg

<svg xmlns="http://www.w3.org/2000/svg" width="16" height="16"><path d="M2 2S1 2 1 3v9c0 1 1 1 1 1h2l1 1h6l1-1h2s1 .13 1-1V3c0-1-1-1-1-1H2zm6 2c1.1 0 2 .895 2 2s-.9 2-2 2v1H7V7h1c.55 0 1-.448 1-1s-.45-1-1-1-1 .448-1 1H6c0-1.105.9-2 2-2zm-1 6h1v1H7v-1z" fill="#444"/></svg>

<svg xmlns="http://www.w3.org/2000/svg" width="16" height="16" version="1.1">
 <path style="fill:#444444" d="M 2 2 C 2 2 1 2 1 3 L 1 12 C 1 13 2 13 2 13 L 4 13 L 5 14 L 11 14 L 12 13 L 14 13 C 14 13 15 13.13 15 12 L 15 3 C 15 2 14 2 14 2 L 2 2 z M 8 4 C 9.1 4 10 4.895 10 6 C 10 7.105 9.1 8 8 8 L 8 9 L 7 9 L 7 7 L 8 7 C 8.55 7 9 6.552 9 6 C 9 5.448 8.55 5 8 5 C 7.45 5 7 5.448 7 6 L 6 6 C 6 4.895 6.9 4 8 4 z M 7 10 L 8 10 L 8 11 L 7 11 L 7 10 z"/>
</svg>
